X: 21
T:Lowlands Away
M:3/4
L:1/8
Q:1/4=72
K:G
G|Bc d3    e |     dB G3
z|g2 d2 (3gab|(3:: g2 f2 d2- d
d|fg a3    f |     gd c4|
  [M:4/4]d4 c B2A|[M:3/4]G4z||

And of course the same mode is found in most of Europe.  An Irish
example originally from the 18th century:

